X:442
T:Valse Gisele
M:3/4
L:1/4
C:Yvon Cuillerier, October 1994
K:D
f/2e/2!segno!|:"D"d A G|"F#m"F2 E/2D/2|"G"E F G|"Em"B>f e/2B/2|"A"d c>B|
"A"cde|"D"a>^g a/2b/2|"A7"a>g f/2e/2|"D"d A G|"F#m"F2 E/2D/2|"G"E F G|
"Em"B>f e/2B/2|"A To Coda"d c>B||c f e|"D"d>c d/2e/2|"D"d>e d/2c/2||"Bm"B F B/2c/2|
"Bm" d b f/2g/2|"Em"a g f|g>e c/2e/2|"A7"A/2B/2 c/2d/2 e/2f/2|"Em"g e a/2^g/2|"D"a g f|
"F#7"f>e d/2c/2|"Bm"B F B/2c/2|"D"d c B|"Em"A G F|"G"G>B A/2G/2|"F#7"F ^A c/2e/2|
"F#7"dcd|"Bm"B>c d|"A  ds al coda"c3||"A7  Coda"A B c|"D"(d3|d2)|

